X:79
%%NRChange 2019-04-30
T:Skr\"aplandschottis
C:Mikhael Marin
O:Sweden
R:Schottish
M:4/4
L:1/8
Q:1/4=140
K:G
P:A
|:"G"G,2 G>A B2 B>A | G>B G>D "C"E2 E2- | E>D E>F "Am"G2 G>F |
 "D"E>D C>B, {B,}A,2 A,2- |"G"A,2 G>A B2 B>A | G>B G>D "C"E2 E2- |
 E>D E>F "Am"G>E D>C | [1"D"B,>G,A,2"G"G,2 z2 :|][2"D"B,>G,A,2"G"G,2 G>F|]
P:B
|:"Em"E>G B>G "Em/D"D>G B>G | "C"C>G A>G "D"D>F G>F | "G"G>A B>c B>A G>B | 
"D"A2!lowermordent!A2A2G>F |"C"C>E G>E "D"D>F A>F | "G"G>A B>A G>F E>D | 
"C"C>E G>E "D"D>F A>F |[1 "G"G2G>FG2G>F:|][2"G"G2G>FG2z2|] 

